logos/vimeo.svg

<?xml version="1.0" encoding="UTF-8" standalone="no"?>
<svg width="512px" height="146px" viewBox="0 0 512 146" version="1.1" xmlns="http://www.w3.org/2000/svg" xmlns:xlink="http://www.w3.org/1999/xlink" preserveAspectRatio="xMidYMid">
	<g fill="#1AB7EB">
		<path d="M114.456961,68.4791293 C113.946122,79.6305125 106.161633,94.8987937 91.1034921,114.278168 C75.5333515,134.521324 62.3606712,144.644063 51.5854512,144.644063 C44.9131973,144.644063 39.2614603,138.481488 34.6488163,126.150531 C31.5675283,114.849379 28.4862404,103.547066 25.4061134,92.2470748 C21.9788481,79.9230839 18.3054512,73.753542 14.3743129,73.753542 C13.5186576,73.753542 10.5198005,75.5577324 5.38819048,79.1498594 L0,72.205932 C5.65057596,67.2391837 11.2256871,62.2712744 16.7125624,57.2975601 C24.2485986,50.7820408 29.9073016,47.3559365 33.6793832,47.0099592 C42.5912018,46.1543039 48.0769161,52.248381 50.1353651,65.2921905 C52.3598367,79.366966 53.8993197,88.1208889 54.764263,91.5469932 C57.333551,103.224308 60.1594195,109.056 63.2476735,109.056 C65.6451338,109.056 69.2442268,105.268825 74.0461134,97.6944762 C78.839873,90.120127 81.410322,84.3569342 81.7551383,80.396771 C82.438966,73.8591927 79.869678,70.5828571 74.0461134,70.5828571 C71.3026757,70.5828571 68.4768073,71.2144399 65.5696689,72.4613515 C71.1981859,54.0212245 81.9501859,45.064127 97.8210249,45.574966 C109.587737,45.9209433 115.133823,53.5556644 114.456961,68.4791293"></path>
		<path d="M162.766077,13.1587483 C162.594249,17.426576 160.452209,21.521415 156.33415,25.4444263 C151.705252,29.8771156 146.219537,32.0946213 139.878168,32.0946213 C130.109533,32.0946213 125.390077,27.8337596 125.736054,19.3050703 C125.900916,14.872381 128.516644,10.6033923 133.57395,6.50855329 C138.631256,2.42068027 144.243519,0.369197279 150.421188,0.369197279 C154.020281,0.369197279 157.017977,1.78213152 159.422404,4.59290703 C161.819864,7.40948753 162.9321,10.265542 162.766077,13.1587483 L162.766077,13.1587483 Z M185.136181,104.59893 C180.335456,113.676771 173.737506,121.897796 165.336526,129.262005 C153.847293,139.195501 142.366186,144.16341 130.883918,144.16341 C125.563066,144.16341 121.491447,142.449778 118.665578,139.022512 C115.83971,135.596408 114.510367,131.148626 114.683356,125.661751 C114.848218,120.012336 116.607129,111.272345 119.949642,99.4522268 C123.294476,87.6321088 124.969796,81.2907392 124.969796,80.4339229 C124.969796,75.9849796 123.422186,73.753542 120.340898,73.753542 C119.312254,73.753542 116.395828,75.5577324 111.595102,79.1498594 L105.68098,72.205932 C111.166694,67.2391837 116.651247,62.2712744 122.136961,57.2975601 C129.508136,50.7820408 134.99385,47.3559365 138.60107,47.0099592 C144.251646,46.4991202 148.406857,48.1605079 151.066703,52.0080544 C153.719583,55.8544399 154.704109,60.8444082 154.027247,66.9907302 C151.79581,77.4130068 149.391383,90.646059 146.820934,106.695692 C146.649107,114.044807 149.308952,117.711238 154.794667,117.711238 C157.190966,117.711238 161.473887,115.180263 167.650395,110.100898 C172.791293,105.877188 176.990621,101.901932 180.251864,98.1751293 L185.136181,104.59893 L185.136181,104.59893 Z"></path>
		<path d="M345.712617,104.59893 C340.911891,113.676771 334.313941,121.897796 325.912961,129.262005 C314.423728,139.195501 302.94146,144.16341 291.460354,144.16341 C280.308971,144.16341 274.913814,138.000834 275.25863,125.661751 C275.423492,120.176036 276.498576,113.587374 278.467628,105.877188 C280.43668,98.1670023 281.511764,92.170449 281.683592,87.8886893 C281.85658,81.3801361 279.879401,78.1200544 275.74741,78.1200544 C271.276408,78.1200544 265.94859,83.439746 259.756989,94.0640363 C253.21941,105.208454 249.687655,116.006893 249.176816,126.458195 C248.832,133.837497 249.55298,139.4962 251.340916,143.434304 C239.379156,143.77912 230.999075,141.803102 226.220408,137.520181 C221.937488,133.7481 219.975401,127.496127 220.321379,118.74917 C220.48624,113.263456 221.327964,107.778902 222.845388,102.293188 C224.357007,96.8074739 225.197569,91.9231565 225.370558,87.6321088 C225.716535,81.2907392 223.39454,78.1200544 218.419664,78.1200544 C214.121651,78.1200544 209.485787,83.0113379 204.510912,92.7799728 C199.537197,102.548608 196.786794,112.752617 196.275955,123.378068 C195.929977,132.981841 196.546467,139.662222 198.117297,143.434304 C186.349424,143.77912 177.993723,141.299229 173.049034,135.993469 C168.946068,131.553814 167.075701,124.806095 167.420517,115.743347 C167.58654,111.302531 168.367891,105.102803 169.779664,97.1522902 C171.192599,89.2029388 171.982077,83.0113379 172.146939,78.5635556 C172.484789,75.4892336 171.711565,73.9485896 169.83307,73.9485896 C168.803265,73.9485896 165.888,75.6842812 161.086113,79.1498594 L154.917732,72.205932 C155.773388,71.5302313 161.168544,66.555356 171.118295,57.2975601 C178.316481,50.6171791 183.200798,47.1910748 185.770086,47.0180862 C190.227156,46.6721088 193.826249,48.5134512 196.568526,52.5409524 C199.310803,56.5684535 200.686585,61.2426304 200.686585,66.555356 C200.686585,68.2678277 200.513596,69.8990295 200.175746,71.4396735 C202.745034,67.5015692 205.743891,64.0673379 209.176961,61.1520726 C217.060136,54.2998639 225.889524,50.4372245 235.658159,49.5804082 C244.059138,48.8965805 250.055692,50.8656327 253.662912,55.4945306 C256.571211,59.2666122 257.938866,64.6687347 257.772844,71.695093 C258.975637,70.673415 260.260862,69.5530522 261.635483,68.3514195 C265.573587,63.7225215 269.4281,60.0409977 273.200181,57.2975601 C279.541551,52.6686621 286.147628,50.0993741 292.999837,49.5804082 C301.227828,48.8965805 307.14195,50.8575057 310.741043,55.4713107 C313.822331,59.2282993 315.196952,64.6095238 314.859102,71.6045351 C314.686113,76.3913288 313.52976,83.3503492 311.387719,92.4874014 C309.237551,101.624454 308.171755,106.86868 308.171755,108.236336 C307.998766,111.828463 308.344744,114.301388 309.200399,115.669043 C310.058376,117.035537 312.108698,117.711238 315.371102,117.711238 C317.767401,117.711238 322.050322,115.180263 328.22683,110.100898 C333.367728,105.877188 337.567057,101.901932 340.828299,98.1751293 L345.712617,104.59893"></path>
		<path d="M383.765478,77.4884717 C383.93034,72.8897596 382.051846,70.5828571 378.114902,70.5828571 C372.975166,70.5828571 367.759964,74.1215782 362.454204,81.2001814 C357.149605,88.2787846 354.407329,95.0566893 354.241306,101.533896 C354.143782,101.533896 354.143782,102.646132 354.241306,104.862476 C362.627193,101.796281 369.900844,97.1081723 376.06342,90.7958277 C381.023202,85.3414603 383.591329,80.899483 383.765478,77.4884717 L383.765478,77.4884717 Z M442.1358,104.336544 C437.160925,112.557569 427.393451,120.770467 412.82293,128.983365 C394.653315,139.427701 376.221315,144.644063 357.540862,144.644063 C343.654168,144.644063 333.705578,140.014005 327.709025,130.764336 C323.424943,124.422966 321.366494,116.884608 321.539483,108.138812 C321.705506,94.2602449 327.882014,81.0655057 340.053914,68.5464671 C353.422803,54.8408889 369.194957,47.9793923 387.364571,47.9793923 C404.166531,47.9793923 413.078349,54.8246349 414.108154,68.5011882 C414.790821,77.2167982 409.990095,86.1971156 399.710621,95.4328526 C388.732227,105.524245 374.929125,111.934113 358.30712,114.668263 C361.387247,118.944218 366.016145,121.079293 372.192653,121.079293 C384.531737,121.079293 397.990023,117.944599 412.566349,111.66244 C423.018812,107.252971 431.247964,102.66819 437.251483,97.9185488 L442.1358,104.336544 L442.1358,104.336544 Z"></path>
		<path d="M482.879855,86.1297778 C483.052844,81.4939138 482.407329,77.2400181 480.949116,73.3773787 C479.490902,69.5159002 477.388336,67.577034 474.651864,67.577034 C465.906068,67.577034 458.706721,72.3034558 453.056145,81.7493333 C448.247293,89.4815782 445.676844,97.7246621 445.338993,106.478585 C445.167166,110.776599 445.94039,114.556807 447.652862,117.816889 C449.531356,121.597098 452.191202,123.482558 455.625433,123.482558 C463.335619,123.482558 469.940535,118.937252 475.426249,109.829224 C480.053986,102.271129 482.535039,94.3728617 482.879855,86.1297778 L482.879855,86.1297778 Z M511.937306,87.0992109 C511.247673,102.849306 505.422948,116.457361 494.45268,127.923374 C483.482413,139.390549 469.849977,145.124717 453.566984,145.124717 C440.026268,145.124717 429.738667,140.758204 422.713469,132.02634 C417.573732,125.527075 414.740898,117.396608 414.230059,107.643066 C413.366277,92.9227755 418.677841,79.3959909 430.174041,67.073161 C442.513125,53.3826757 458.022893,46.5374331 476.710313,46.5374331 C488.70458,46.5374331 497.789388,50.5649342 503.964735,58.6048435 C509.796426,65.9690522 512.449306,75.4671746 511.937306,87.0992109 L511.937306,87.0992109 Z"></path>
	</g>
</svg>

<svg preserveAspectRatio="xMidYMid" viewBox="0 0 512 146" xmlns="http://www.w3.org/2000/svg">
  <g fill="#1AB7EB">
    <path d="M114.457 68.48c-.51 11.15-8.295 26.419-23.354 45.798-15.57 20.243-28.742 30.366-39.518 30.366-6.672 0-12.324-6.163-16.936-18.493l-9.243-33.904c-3.427-12.324-7.1-18.493-11.032-18.493-.855 0-3.854 1.804-8.986 5.396L0 72.206c5.65-4.967 11.226-9.935 16.713-14.908 7.536-6.516 13.194-9.942 16.966-10.288 8.912-.856 14.398 5.238 16.456 18.282 2.225 14.075 3.764 22.829 4.63 26.255 2.569 11.677 5.394 17.509 8.483 17.509 2.397 0 5.996-3.787 10.798-11.362 4.794-7.574 7.364-13.337 7.71-17.297.683-6.538-1.886-9.814-7.71-9.814-2.743 0-5.57.631-8.476 1.878 5.628-18.44 16.38-27.397 32.251-26.886 11.767.346 17.313 7.98 16.636 22.904"/>
    <path d="M162.766 13.159c-.172 4.268-2.314 8.362-6.432 12.285-4.629 4.433-10.114 6.65-16.456 6.65-9.768 0-14.488-4.26-14.142-12.789.165-4.433 2.78-8.702 7.838-12.796 5.057-4.088 10.67-6.14 16.847-6.14 3.6 0 6.597 1.413 9.001 4.224 2.398 2.816 3.51 5.673 3.344 8.566Zm22.37 91.44c-4.8 9.078-11.398 17.299-19.8 24.663-11.489 9.934-22.97 14.901-34.452 14.901-5.32 0-9.393-1.713-12.218-5.14-2.826-3.427-4.156-7.874-3.983-13.361.165-5.65 1.924-14.39 5.267-26.21 3.344-11.82 5.02-18.161 5.02-19.018 0-4.449-1.548-6.68-4.63-6.68-1.028 0-3.944 1.804-8.745 5.396l-5.914-6.944c5.486-4.967 10.97-9.935 16.456-14.908 7.371-6.516 12.857-9.942 16.464-10.288 5.65-.51 9.806 1.15 12.466 4.998 2.653 3.846 3.637 8.836 2.96 14.983-2.231 10.422-4.636 23.655-7.206 39.705-.172 7.349 2.488 11.015 7.974 11.015 2.396 0 6.679-2.53 12.855-7.61 5.141-4.224 9.34-8.2 12.602-11.926l4.884 6.424Z"/>
    <path d="M345.713 104.599c-4.801 9.078-11.4 17.299-19.8 24.663-11.49 9.934-22.972 14.901-34.453 14.901-11.151 0-16.546-6.162-16.201-18.501.164-5.486 1.24-12.075 3.209-19.785 1.969-7.71 3.044-13.707 3.216-17.988.173-6.509-1.805-9.769-5.937-9.769-4.47 0-9.798 5.32-15.99 15.944-6.538 11.144-10.07 21.943-10.58 32.394-.345 7.38.376 13.038 2.164 16.976-11.962.345-20.342-1.63-25.12-5.914-4.284-3.772-6.246-10.024-5.9-18.77.165-5.487 1.007-10.971 2.524-16.457 1.512-5.486 2.353-10.37 2.526-14.66.346-6.342-1.976-9.513-6.951-9.513-4.298 0-8.934 4.891-13.91 14.66-4.973 9.769-7.723 19.973-8.234 30.598-.346 9.604.27 16.284 1.841 20.056-11.768.345-20.123-2.135-25.068-7.44-4.103-4.44-5.973-11.188-5.628-20.25.166-4.441.947-10.641 2.359-18.592 1.413-7.95 2.202-14.14 2.367-18.588.338-3.075-.435-4.615-2.314-4.615-1.03 0-3.945 1.735-8.747 5.2l-6.168-6.943c.855-.676 6.25-5.65 16.2-14.908 7.198-6.68 12.083-10.107 14.652-10.28 4.457-.346 8.056 1.495 10.799 5.523 2.742 4.027 4.118 8.702 4.118 14.014 0 1.713-.173 3.344-.511 4.885 2.569-3.938 5.568-7.373 9.001-10.288 7.883-6.852 16.713-10.715 26.481-11.572 8.401-.683 14.398 1.286 18.005 5.915 2.908 3.772 4.276 9.174 4.11 16.2a368.178 368.178 0 0 0 3.862-3.344c3.939-4.628 7.793-8.31 11.565-11.053 6.342-4.63 12.948-7.199 19.8-7.718 8.228-.683 14.142 1.278 17.741 5.891 3.081 3.757 4.456 9.139 4.118 16.134-.173 4.786-1.33 11.745-3.471 20.882-2.15 9.137-3.216 14.382-3.216 15.75-.173 3.591.173 6.064 1.028 7.432.858 1.367 2.909 2.042 6.171 2.042 2.396 0 6.68-2.53 12.856-7.61 5.14-4.224 9.34-8.2 12.601-11.926l4.885 6.424"/>
    <path d="M383.765 77.488c.165-4.598-1.713-6.905-5.65-6.905-5.14 0-10.355 3.539-15.66 10.617-5.305 7.079-8.048 13.857-8.214 20.334-.097 0-.097 1.112 0 3.328 8.386-3.066 15.66-7.754 21.822-14.066 4.96-5.455 7.528-9.897 7.702-13.308Zm58.37 26.849c-4.974 8.22-14.742 16.433-29.312 24.646-18.17 10.445-36.602 15.661-55.282 15.661-13.887 0-23.835-4.63-29.832-13.88-4.284-6.341-6.343-13.88-6.17-22.625.167-13.879 6.343-27.073 18.515-39.593 13.369-13.705 29.141-20.567 47.31-20.567 16.803 0 25.714 6.846 26.744 20.522.683 8.716-4.118 17.696-14.397 26.932-10.979 10.091-24.782 16.501-41.404 19.235 3.08 4.276 7.71 6.411 13.886 6.411 12.339 0 25.797-3.134 40.373-9.417 10.453-4.409 18.682-8.994 24.685-13.743l4.885 6.418Z"/>
    <path d="M482.88 86.13c.173-4.636-.473-8.89-1.93-12.753-1.46-3.861-3.562-5.8-6.298-5.8-8.746 0-15.945 4.726-21.596 14.172-4.809 7.733-7.38 15.976-7.717 24.73-.172 4.298.601 8.078 2.314 11.338 1.878 3.78 4.538 5.666 7.972 5.666 7.71 0 14.316-4.546 19.801-13.654 4.628-7.558 7.109-15.456 7.454-23.7Zm29.057.97c-.69 15.75-6.514 29.357-17.484 40.823-10.97 11.468-24.603 17.202-40.886 17.202-13.54 0-23.828-4.367-30.854-13.099-5.14-6.499-7.972-14.63-8.483-24.383-.864-14.72 4.448-28.247 15.944-40.57 12.34-13.69 27.849-20.536 46.536-20.536 11.995 0 21.08 4.028 27.255 12.068 5.831 7.364 8.484 16.862 7.972 28.494Z"/>
  </g>
</svg>
